X:74
T:Farewell Nelson. RHu.074
S:R.Hughes MS,1823,Whitchurch,Shrops.
A:Whitchurch, Shropshire
Z:Neil Brookes 2006
M:2/4
L:1/8
Q:1/4=100
R:Country Dance
K:G
fe/f/|gGGG|Bddd|ec’ba|g/f/e/f/ de/f/|!
gGGG|Bddd|ec’ ba/b/|g2-g:|!
|:a|bggg|abc’b|a/b/a/g/ fa|g/f/e/f/ dg/a/|!
bggg|abc’b|a/b/c’/b/ fa/f/|g2-g:|

